X: 1
T:Martin Lawrie
M:9/8
L:1/8
Q:80
C:A. Lawrie; 4th part G.M. Bottoni (2/91)
S:March
K:HP
|: {g}A3/2{d}c/2e{g}f3{g}e2A|
{g}c3/2B/2{G}B{g}A3{GAG}A3|
{g}e3/2c/2e{ag}a3{g}a2e|  !
{g}f3/2e/2c{g}e3{A}e3|
{g}f3/2e/2f{ag}a3{g}a3/2f/2e|
{g}f3/2e/2c{g}e3{ag}a3|  !
A3/2{d}c/2e{g}f3{g}e2A|
{g}c3/2B/2{G}B{g}A3{GAG}A3:| |:
{ag}a3/2f/2e{g}f3{g}e2A|  !
{g}c3/2B/2{G}B{g}A3{GAG}A3|
{ag}a3/2f/2e{g}f3{ag}a2f|
{g}e3/2c/2e{g}f3{e}f2e|  !
{g}f3/2e/2f{ag}a3{g}a3/2f/2e|
{g}f3/2e/2c{g}e3{ag}a3|
A3/2{d}c/2e{g}f3{g}e2A|  !
{g}c3/2B/2{G}B{g}A3{GAG}A3:| |:
{g}e3/2c/2e{g}f3{g}e2c|
{g}c3/2B/2{G}B{g}A3{GAG}A3|  !
{g}e3/2c/2e{ag}a3{g}a2f|
{g}e3/2c/2{d}B{g}c3{G}c3|
{g}f3/2e/2f{ag}a3{g}a3/2f/2e|  !
{g}f3/2e/2c{g}e3{ag}a3|
A3/2{d}c/2e{g}f3{g}e2A|
{g}c3/2B/2{G}B{g}A3{GAG}A3:| |:  !
{g}f3/2a/2e{g}f3{g}e2A|
{g}c3/2B/2{G}B{g}A3{GAG}A3|
{ag}a3/2f/2e{g}f3{ag}a2e|  !
{g}c3/2e/2{A}e{g}f3{e}f3|
{g}f3/2e/2f{ag}a3{g}a3/2f/2e|
{g}f3/2e/2c{g}e3{ag}a3|  !
A3/2{d}c/2e{g}f3{g}e2A|
{g}c3/2B/2{G}B{g}A3{GAG}A3:|
